resources/svg/user.svg

<svg xmlns="http://www.w3.org/2000/svg" viewBox="0 0 24 24" fill="currentColor"><path fill="none" stroke="currentColor" stroke-width="2" d="M8,24 L8,19 M16,24 L16,19 M3,24 L3,19 C3,14.0294373 7.02943725,11 12,11 C16.9705627,11 21,14.0294373 21,19 L21,24 M12,11 C14.7614237,11 17,8.76142375 17,6 C17,3.23857625 14.7614237,1 12,1 C9.23857625,1 7,3.23857625 7,6 C7,8.76142375 9.23857625,11 12,11 Z"/></svg>

<svg viewBox="0 0 24 24"><path fill="none" stroke="currentColor" stroke-width="2" d="M8 24v-5m8 5v-5M3 24v-5c0-4.97 4.03-8 9-8s9 3.03 9 8v5m-9-13a5 5 0 1 0 0-10a5 5 0 0 0 0 10z"/></svg>
